X: 1
T:Greensleeves
O:Stanton Harcourt
M:6/8
L:1/8
Q:1/4=100
P:A(AB2)4A
K:AMin
P:A
c3  cce|d2B BAB|c2A A2A|G2E E3|
c3  cce|d2B BBB|c2A B2G|A3  A3||
P:B
g2g gag|e2d B3 |a3  aba|g2e e2^f|
g2g gag|e2d BAB|c2A B2G|A3  A3||
</abc>
